X:428
T:Reel 428
M:4/4
K:Gmaj
L:1/8
de|dBAG BGdG|ceB>G  (3GGG G2|e>A (3AAA e>A (3AGA |edef gfge|d<B (3BBB efge|dBBd e2d2|egfg aged|edcB A2|
